icons/elderly.svg

<svg width="48" height="48" viewBox="0 0 48 48" fill="none" xmlns="http://www.w3.org/2000/svg">
<path fill-rule="evenodd" clip-rule="evenodd" d="M17 15C19.2091 15 21 13.2091 21 11C21 8.79086 19.2091 7 17 7C14.7909 7 13 8.79086 13 11C13 13.2091 14.7909 15 17 15ZM17 13C18.1046 13 19 12.1046 19 11C19 9.89543 18.1046 9 17 9C15.8954 9 15 9.89543 15 11C15 12.1046 15.8954 13 17 13Z" fill="black"/>
<path d="M21.0001 38.0001V33.9287L23.0001 36.7858V38.0001C23.0001 39.6256 21.7054 40.9555 20.0804 40.999C19.0105 41.0276 18.0537 40.4918 17.5001 39.6591C16.9464 40.4918 15.9896 41.0276 14.9197 40.999C13.2947 40.9555 12 39.6256 12 38.0001L12 26.6421C11.4199 26.9547 10.7334 27.0791 10.0349 26.9504C8.40549 26.6501 7.32804 25.0857 7.62834 23.4563C7.86192 22.1889 8.09861 21.0823 8.39657 20.1742C8.69042 19.2786 9.13682 18.2727 9.97245 17.4663C10.8836 16.587 11.9324 16.2501 12.8285 16.1128C13.568 15.9995 14.3922 15.9998 15.0719 16L15.1097 16L17.8707 18.0001L15.1093 18C14.3853 17.9998 13.7051 18.0018 13.1314 18.0897C12.4917 18.1878 11.8803 18.4046 11.3613 18.9055C10.8666 19.3828 10.5485 20.0309 10.2969 20.7977C10.0437 21.5693 9.8266 22.5633 9.59522 23.8188C9.49512 24.3619 9.85427 24.8834 10.3974 24.9835C10.9405 25.0836 11.462 24.7244 11.5621 24.1813C11.7322 23.2585 11.884 22.5406 12.0336 21.9778L14 22.2348V38.0001C14 38.5419 14.4316 38.9852 14.9733 38.9997C15.5149 39.0142 15.9696 38.5947 15.9986 38.0536L16.5376 28.0001H18.4626L19.0015 38.0536C19.0305 38.5947 19.4852 39.0142 20.0269 38.9997C20.5685 38.9852 21.0001 38.5419 21.0001 38.0001Z" fill="black"/>
<path d="M17.8707 18.0001H18.9994C19.0117 18.0001 19.0246 18.0003 19.0367 18.0007L19.0439 18.001L19.0511 18.0011C20.0449 18.0219 20.9379 18.3652 21.6827 18.9284L22.7361 17.2048C21.7303 16.4836 20.5098 16.0325 19.0997 16.0017C19.0666 16.0006 19.0334 16.0001 19.0001 16.0001L15.1097 16L17.8707 18.0001Z" fill="black"/>
<path d="M8.5 27C7.11929 27 6 28.1193 6 29.5V30.3034C6 30.8557 6.44772 31.3034 7 31.3034C7.55228 31.3034 8 30.8557 8 30.3034V29.5C8 29.2239 8.22386 29 8.5 29C8.77614 29 9 29.2239 9 29.5V39C9 39.5523 9.44772 40 10 40C10.5523 40 11 39.5523 11 39V29.5C11 28.1193 9.88071 27 8.5 27Z" fill="black"/>
<path d="M37 29.5C37 28.1193 38.1193 27 39.5 27C40.8807 27 42 28.1193 42 29.5V39C42 39.5523 41.5523 40 41 40C40.4477 40 40 39.5523 40 39V29.5C40 29.2239 39.7761 29 39.5 29C39.2239 29 39 29.2239 39 29.5V30.3034C39 30.8557 38.5523 31.3034 38 31.3034C37.4477 31.3034 37 30.8557 37 30.3034V29.5Z" fill="black"/>
<path fill-rule="evenodd" clip-rule="evenodd" d="M29.9999 14.5706C32.209 14.5706 33.9999 12.8758 33.9999 10.7853C33.9999 8.69473 32.209 7 29.9999 7C27.7907 7 25.9999 8.69473 25.9999 10.7853C25.9999 12.8758 27.7907 14.5706 29.9999 14.5706ZM29.9999 12.6779C31.1044 12.6779 31.9999 11.8306 31.9999 10.7853C31.9999 9.74001 31.1044 8.89264 29.9999 8.89264C28.8953 8.89264 27.9999 9.74001 27.9999 10.7853C27.9999 11.8306 28.8953 12.6779 29.9999 12.6779Z" fill="black"/>
<path fill-rule="evenodd" clip-rule="evenodd" d="M31.4786 16.4632C31.9089 16.4633 32.6595 16.5083 33.4461 16.8831C34.7769 17.5172 35.5364 18.5555 35.9875 19.4728L36.0701 19.6406C36.2271 19.9589 36.2701 20.046 36.2926 20.1381C36.3011 20.1729 36.3067 20.2083 36.3144 20.2571C36.3282 20.3449 36.3488 20.4759 36.4054 20.7237C36.5807 21.4911 36.5849 21.5106 36.6846 21.9957C36.78 22.4595 36.9667 23.3673 37.4944 25.854C37.8205 27.3913 36.7681 28.8877 35.1437 29.1964C34.8835 29.2458 34.6245 29.2617 34.3716 29.2473L35.3576 33.5875C35.5069 34.4002 35.0737 35.2874 34.1476 35.6C33.2402 35.9062 31.5954 36.336 29.4999 36.336C27.4043 36.336 25.7595 35.9062 24.8521 35.6C23.926 35.2874 23.4928 34.4001 23.6421 33.5875L24.1813 30.6537C23.9286 30.668 23.6698 30.6521 23.4097 30.6027C21.7853 30.294 20.7329 28.7976 21.059 27.2604C21.5865 24.7744 21.7732 23.8667 21.8686 23.4027C21.9684 22.9177 21.9727 22.8974 22.148 22.13C22.3326 21.3216 22.5813 20.3502 23.0127 19.473C23.4638 18.5557 24.2233 17.5174 25.5541 16.8833C26.3407 16.5084 27.0911 16.4635 27.5209 16.4634L31.0089 16.4633L31.016 16.4634L31.4786 16.4632ZM31.4783 18.3559L30.9983 18.3561L30.9908 18.3559L27.5216 18.356C27.2369 18.3562 26.8428 18.3882 26.4535 18.5737C25.6605 18.9516 25.1632 19.5858 24.826 20.2716C24.4958 20.9431 24.2842 21.7358 24.1028 22.5299C23.9305 23.2843 23.9281 23.296 23.8342 23.7523L23.8319 23.7636C23.7357 24.2313 23.5484 25.1423 23.0199 27.633C22.9112 28.1454 23.262 28.6442 23.8035 28.7471C24.0545 28.7948 24.303 28.7493 24.5086 28.6344L25.6949 22.4603L27.6626 22.7989L27.0364 26.0584L27.0605 26.0332L25.6238 33.8504C26.397 34.1021 27.7665 34.4433 29.4999 34.4433C31.2332 34.4433 32.6028 34.1021 33.3759 33.8504L31.9386 26.0296L31.9601 26.0413L31.3371 22.7989L33.3048 22.4603L34.0747 27.2442C34.2743 27.3472 34.5109 27.3862 34.7499 27.3407C35.2914 27.2379 35.6422 26.7391 35.5335 26.2266C35.005 23.7361 34.8177 22.825 34.7215 22.3572L34.7192 22.3462C34.6253 21.8896 34.623 21.8781 34.4506 21.1236C34.3766 20.7998 34.3719 20.71 34.3699 20.6717C34.3694 20.6616 34.3691 20.6551 34.3677 20.6488C34.3652 20.6374 34.3592 20.6267 34.3425 20.5966C34.3179 20.5522 34.2696 20.4654 34.1742 20.2714C33.837 19.5857 33.3397 18.9514 32.5467 18.5735C32.1574 18.388 31.7631 18.3559 31.4783 18.3559Z" fill="black"/>
<path d="M24.9999 39.5805V37.2823C26.3055 37.4524 27.5072 37.5575 28.682 37.5992L27.9385 39.9824C27.7274 40.659 27.0232 41.0863 26.2853 40.9854C25.5474 40.8844 24.9999 40.286 24.9999 39.5805Z" fill="black"/>
<path d="M31.0706 40.0111L30.2651 37.617C31.4729 37.6012 32.6893 37.518 33.9999 37.3694V39.5805C33.9999 40.2803 33.4609 40.8757 32.7301 40.9831C31.9994 41.0906 31.2949 40.6779 31.0706 40.0111Z" fill="black"/>
</svg>

<svg
  xmlns="http://www.w3.org/2000/svg"
  width="24"
  height="24"
  viewBox="0 0 24 24"
  fill="none"
  stroke="currentColor"
  stroke-width="2"
  stroke-linecap="round"
  stroke-linejoin="round"
>
  <path
    fill-rule="evenodd"
    d="M17 15a4 4 0 1 0 0-8 4 4 0 0 0 0 8m0-2a2 2 0 1 0 0-4 2 2 0 0 0 0 4"
    clip-rule="evenodd"
  />
  <path d="M21 38V33.93l2 2.857V38a3 3 0 0 1-5.5 1.66A2.999 2.999 0 0 1 12 38V26.642a3 3 0 0 1-4.372-3.186c.234-1.267.47-2.374.769-3.282.293-.895.74-1.901 1.575-2.708.912-.879 1.96-1.216 2.857-1.353.739-.114 1.563-.113 2.243-.113h.038l2.76 2h-2.76c-.725 0-1.405.002-1.979.09-.64.098-1.25.315-1.77.816-.494.477-.812 1.125-1.064 1.892-.253.771-.47 1.765-.702 3.02a1 1 0 0 0 1.967.363c.17-.922.322-1.64.472-2.203l1.966.257V38a1 1 0 0 0 1.999.054L16.538 28h1.925L19 38.054a1 1 0 0 0 2-.054" />
  <path d="M17.87 18h1.167l.007.001h.007c.994.02 1.887.364 2.632.927l1.053-1.723A6.4 6.4 0 0 0 19 16h-3.89z" />
  <path d="M8.5 27A2.5 2.5 0 0 0 6 29.5v.803a1 1 0 1 0 2 0V29.5a.5.5 0 0 1 1 0V39a1 1 0 1 0 2 0v-9.5A2.5 2.5 0 0 0 8.5 27" />
  <path d="M37 29.5a2.5 2.5 0 0 1 5 0V39a1 1 0 1 1-2 0v-9.5a.5.5 0 0 0-1 0v.803a1 1 0 1 1-2 0z" />
  <path
    fill-rule="evenodd"
    d="M30 14.57c2.209 0 4-1.694 4-3.785C34 8.695 32.209 7 30 7s-4 1.695-4 3.785 1.79 3.786 4 3.786m0-1.892c1.104 0 2-.847 2-1.893 0-1.045-.896-1.892-2-1.892s-2 .847-2 1.892c0 1.046.895 1.893 2 1.893"
    clip-rule="evenodd"
  />
  <path
    fill-rule="evenodd"
    d="M31.479 16.463c.43 0 1.18.045 1.967.42 1.33.634 2.09 1.672 2.541 2.59l.083.168c.157.318.2.405.223.497.008.035.014.07.021.12.014.087.035.218.091.466.176.767.18.787.28 1.272.095.463.282 1.371.81 3.858.326 1.537-.727 3.034-2.351 3.342-.26.05-.52.066-.772.051l.986 4.34c.149.813-.284 1.7-1.21 2.013-.908.306-2.553.736-4.648.736-2.096 0-3.74-.43-4.648-.736a1.78 1.78 0 0 1-1.21-2.013l.54-2.933a3.2 3.2 0 0 1-.772-.051c-1.625-.309-2.677-1.805-2.351-3.343.527-2.486.714-3.393.81-3.857.1-.485.104-.506.279-1.273.185-.808.433-1.78.865-2.657.45-.917 1.21-1.956 2.541-2.59.787-.375 1.537-.42 1.967-.42h3.958m0 1.893H27.52c-.284 0-.678.032-1.068.218-.793.378-1.29 1.012-1.627 1.698-.33.671-.542 1.464-.723 2.258-.173.754-.175.766-.269 1.222l-.002.012c-.096.467-.284 1.378-.812 3.869-.109.512.242 1.011.784 1.114.25.048.499.002.705-.113l1.186-6.174 1.968.339-.627 3.26.024-.026-1.436 7.817c.773.252 2.143.593 3.876.593s3.103-.34 3.876-.593l-1.437-7.82.021.011-.623-3.242 1.968-.339.77 4.784c.2.103.436.142.675.097.541-.103.892-.602.783-1.114-.528-2.49-.715-3.402-.812-3.87l-.002-.01c-.094-.457-.096-.469-.268-1.223-.074-.324-.08-.414-.081-.452q0-.015-.002-.023c-.003-.012-.009-.022-.026-.052-.024-.045-.072-.132-.168-.326-.337-.685-.834-1.32-1.627-1.698a2.5 2.5 0 0 0-1.069-.217"
    clip-rule="evenodd"
  />
  <path d="M25 39.58v-2.298c1.305.17 2.507.276 3.682.317l-.743 2.383c-.212.677-.916 1.104-1.654 1.003-.738-.1-1.285-.699-1.285-1.404" />
  <path d="m31.07 40.011-.805-2.394A37 37 0 0 0 34 37.369v2.212c0 .7-.54 1.295-1.27 1.402-.73.108-1.435-.305-1.66-.972" />
</svg>
